credit-card-off.svg

<svg fill="currentColor" viewBox="0 0 24 24"><path d="m11.2 8-4-4H20a2 2 0 0 1 2 2v12a1.9 1.9 0 0 1-.12.68L14.2 11H20V8m.84 14.73L18.11 20H4a2 2 0 0 1-2-2V6a2 2 0 0 1 .65-1.46L1.11 3l1.28-1.27 19.72 19.73M9.11 11l-3-3H4v3Z"/></svg>

<svg  viewBox="0 0 24 24" fill="currentColor"><path  d="M11.2 8L7.2 4H20A2 2 0 0 1 22 6V18A1.91 1.91 0 0 1 21.88 18.68L14.2 11H20V8M20.84 22.73L18.11 20H4A2 2 0 0 1 2 18V6A2 2 0 0 1 2.65 4.54L1.11 3L2.39 1.73L22.11 21.46M9.11 11L6.11 8H4V11Z"/></svg>
